usr/share/icons/biglinux-icons-material/scalable/mimetypes/application-x-kdenlivetitle.svg

<svg width="24" height="24" viewBox="0 0 24 24" fill="none" xmlns="http://www.w3.org/2000/svg">
<rect x="1" y="1" width="22" height="22" rx="6.6" fill="url(#paint0_radial_6_46)"/>
<path d="M6.62153 5C6.2782 4.99982 5.99981 5.27873 6 5.62273V18.3765C5.99991 18.8496 6.50583 19.1499 6.91989 18.9225L18.5879 12.5456C19.0184 12.3095 19.0184 11.69 18.5879 11.4538L8.08636 5.71428L6.91989 5.07703C6.82848 5.02676 6.72586 5 6.62153 5Z" fill="#EDEEF8"/>
<path opacity="0.2" fill-rule="evenodd" clip-rule="evenodd" d="M2.99975 2.86737C2.4703 3.38211 2.02693 3.98491 1.69329 4.65214H2.99975V2.86737ZM1 7.6C1 6.96966 1.08836 6.35997 1.25338 5.78262H2.99975V8.04346H1V7.6ZM1 9.17393V11.4348H2.99975V9.17393H1ZM1 12.5652V14.8261H2.99975V12.5652H1ZM1 15.9565V16.4C1 17.0303 1.08836 17.64 1.25338 18.2174H2.99975V15.9565H1ZM2.99975 21.1326C2.4703 20.6179 2.02693 20.0151 1.69329 19.3479H2.99975V21.1326Z" fill="white"/>
<path opacity="0.2" fill-rule="evenodd" clip-rule="evenodd" d="M21.0002 2.86737C21.5297 3.38211 21.9731 3.98491 22.3067 4.65214H21.0002V2.86737ZM22.7466 5.78262H21.0002V8.04346H23V7.6C23 6.96966 22.9116 6.35997 22.7466 5.78262ZM23 9.17393H21.0002V11.4348H23V9.17393ZM23 12.5652H21.0002V14.8261H23V12.5652ZM23 15.9565H21.0002V18.2174H22.7466C22.9116 17.64 23 17.0303 23 16.4V15.9565ZM22.3067 19.3479H21.0002V21.1326C21.5297 20.6179 21.9731 20.0151 22.3067 19.3479Z" fill="white"/>
<defs>
<radialGradient id="paint0_radial_6_46" cx="0" cy="0" r="1" gradientUnits="userSpaceOnUse" gradientTransform="translate(17.5 1) rotate(116.565) scale(24.5967)">
<stop stop-color="#748290"/>
<stop offset="1" stop-color="#636F7B"/>
</radialGradient>
</defs>
</svg>

<svg xmlns="http://www.w3.org/2000/svg" width="24" height="24" fill="none"><rect width="22" height="22" x="1" y="1" fill="url(#a)" rx="6.6"/><path fill="#EDEEF8" d="M6.622 5A.622.622 0 0 0 6 5.623v12.753c0 .474.506.774.92.546l11.668-6.376a.623.623 0 0 0 0-1.092L8.086 5.714 6.92 5.077A.62.62 0 0 0 6.622 5Z"/><path fill="#fff" fill-rule="evenodd" d="M3 2.867a6.62 6.62 0 0 0-1.307 1.785H3V2.867ZM1 7.6c0-.63.088-1.24.253-1.817H3v2.26H1V7.6Zm0 1.574v2.26h2v-2.26H1Zm0 3.391v2.261h2v-2.26H1Zm0 3.392v.443c0 .63.088 1.24.253 1.817H3v-2.26H1Zm2 5.176a6.62 6.62 0 0 1-1.307-1.785H3v1.785ZM21 2.867c.53.515.973 1.118 1.307 1.785H21V2.867Zm1.747 2.916H21v2.26h2V7.6c0-.63-.088-1.24-.253-1.817ZM23 9.173h-2v2.262h2V9.174Zm0 3.392h-2v2.261h2v-2.26Zm0 3.392h-2v2.26h1.747A6.605 6.605 0 0 0 23 16.4v-.443Zm-.693 3.39H21v1.786a6.618 6.618 0 0 0 1.307-1.785Z" clip-rule="evenodd" opacity=".2"/><defs><radialGradient id="a" cx="0" cy="0" r="1" gradientTransform="rotate(116.565 8.441 5.908) scale(24.5967)" gradientUnits="userSpaceOnUse"><stop stop-color="#748290"/><stop offset="1" stop-color="#636F7B"/></radialGradient></defs></svg>
